X: 242
T: Kacerac
O: Serbia
F: http://www.youtube.com/watch?v=wu9rTujOUXU
F: http://www.youtube.com/watch?v=6gBpwgdjx3w
F: http://www.youtube.com/watch?v=W4V1-jvaRg4
F: http://www.youtube.com/watch?v=qzyi1oUEp4A
M: 2/8
L: 1/16
Q: 1/4=160
K: A octave=1
%%MIDI program 72
|:e4  |e4  |efga|b4|e4|efga|b4|b4 |
  e4  |e4  |efga|b4|g4|f2e2|f4|f4 :|
|:agab|agab|agab|a4|g4|f2e2|f4|f4 :|
|:agab|agab|agab|a4|g4|f2e2|f4|f4 :|



